lib/brands/icons/v8-turbofan.svg

<svg xmlns="http://www.w3.org/2000/svg" fill="none" aria-hidden="true" viewBox="0 0 48 48"><g id="v8-turbofan-Icon"><g id="Group"><path id="Vector" fill="#424242" d="M20.3369 16.1112V38.9924H27.6856V16.1112H20.3369ZM27.5017 38.8009H20.5361V16.3028H27.5017V38.8009Z"/><path id="Vector_2" fill="#424242" d="M6 10.3947L9.30268 16.1111H20.3372V38.9924H27.6935V16.1111H38.6973L42 10.3947H6Z"/><path id="Vector_3" fill="white" d="M41.8851 10.5939L42 10.3947H6L6.12261 10.5939H41.8851Z" opacity="0.2"/><path id="Vector_4" fill="#AFAFAF" d="M12.3142 16.1111H9.30273L10.2453 17.7433H11.6016C11.8085 17.1763 12.0384 16.6322 12.3142 16.1111ZM35.6092 16.1111C35.8774 16.6322 36.115 17.1839 36.3142 17.7433H37.7548L38.6974 16.1111H35.6092Z"/><path id="Vector_5" fill="#4285F4" d="M23.9618 35.2146C31.1987 35.2146 37.0653 29.348 37.0653 22.1111C37.0653 14.8743 31.1987 9.00769 23.9618 9.00769C16.725 9.00769 10.8584 14.8743 10.8584 22.1111C10.8584 29.348 16.725 35.2146 23.9618 35.2146Z"/><path id="Vector_6" fill="#263238" d="M11.6783 17.5441H10.1304L10.2453 17.7433H11.6016C11.6323 17.6743 11.6553 17.6054 11.6783 17.5441ZM36.2453 17.5441C36.2683 17.613 36.2913 17.6743 36.3143 17.7433H37.7549L37.8698 17.5441H36.2453ZM23.9618 35.023C16.7587 35.023 10.912 29.2069 10.8583 22.0115V22.1035C10.8583 29.3372 16.7281 35.2069 23.9618 35.2069C31.1955 35.2069 37.0652 29.3372 37.0652 22.1035V22.0115C37.0116 29.2069 31.1649 35.023 23.9618 35.023Z" opacity="0.3"/><path id="Vector_7" fill="white" d="M23.9618 9.19917C31.1649 9.19917 37.0117 15.0153 37.0653 22.2107V22.1187C37.0653 14.885 31.1956 9.01526 23.9618 9.01526C16.7281 9.01526 10.8584 14.885 10.8584 22.1187V22.2107C10.912 15.0153 16.7588 9.19917 23.9618 9.19917Z" opacity="0.2"/><path id="Vector_8" fill="#263238" d="M23.9618 30.8391C28.7017 30.8391 32.5441 26.9967 32.5441 22.2568C32.5441 17.5168 28.7017 13.6744 23.9618 13.6744C19.2219 13.6744 15.3794 17.5168 15.3794 22.2568C15.3794 26.9967 19.2219 30.8391 23.9618 30.8391Z" opacity="0.3"/><path id="Vector_9" fill="url(#paint0_radial_94_18947)" d="M36.9806 23.6053L31.3025 17.9271L30.3599 18.4712L26.6665 14.7777L24.0534 21.5976L22.7891 27.0229L23.9308 30.839L27.7546 34.6628C32.6818 33.1685 36.3829 28.862 36.9806 23.6053Z"/><path id="Vector_10" fill="#E8E8E8" d="M23.9309 13.8199V22.3257L27.7011 17.2912C27.4942 15.138 25.9769 13.8199 23.9309 13.8199ZM16.4903 18.0345L23.9309 22.3257L21.4559 16.5556C19.4865 15.659 17.5172 16.2644 16.4903 18.0345ZM16.5593 26.5862L23.9309 22.3257L17.7011 21.5901C15.9309 22.8468 15.5325 24.8161 16.5593 26.5862Z"/><path id="Vector_11" fill="#D6D6D6" d="M23.9311 30.839V22.3332L20.1763 27.2145C20.3755 29.3677 21.8774 30.839 23.9311 30.839ZM26.4062 28.0957C28.3755 28.9999 30.3525 28.2489 31.3717 26.4788L23.9387 22.1263L26.4062 28.0957Z"/><path id="Vector_12" fill="#D6D6D6" d="M31.3028 18.0729L23.9312 22.3334L30.161 23.069C31.9235 21.8047 32.3296 19.8353 31.3028 18.0729Z"/><path id="Vector_13" fill="white" d="M23.9312 22.1802V13.6744C25.9772 13.6744 27.4791 15.0001 27.686 17.161L23.9312 22.1802ZM23.9312 22.1802L16.5596 17.9196C17.5941 16.1495 19.4944 15.5059 21.4561 16.4101L23.9312 22.1802Z"/><path id="Vector_14" fill="white" d="M23.931 22.1801L16.5593 26.4406C15.5325 24.6705 15.9386 22.7012 17.7011 21.4445L23.931 22.1801Z"/><path id="Vector_15" fill="#E8E8E8" d="M23.9311 22.1801V30.6859C21.8851 30.6859 20.3832 29.3602 20.1763 27.1993L23.9311 22.1801ZM23.9311 22.1801L31.3027 26.4407C30.2759 28.2108 28.3755 28.8544 26.4062 27.9502L23.9311 22.1801Z"/><path id="Vector_16" fill="#E8E8E8" d="M23.9312 22.1801L31.3028 17.9196C32.3296 19.6897 31.9235 21.659 30.161 22.9157L23.9312 22.1801Z"/><path id="Vector_17" fill="white" d="M23.9231 24.9082C25.489 24.9082 26.7584 23.6388 26.7584 22.0729C26.7584 20.5071 25.489 19.2377 23.9231 19.2377C22.3573 19.2377 21.0879 20.5071 21.0879 22.0729C21.0879 23.6388 22.3573 24.9082 23.9231 24.9082Z"/><path id="Vector_18" fill="url(#paint1_radial_94_18947)" d="M23.9231 24.9082C25.489 24.9082 26.7584 23.6388 26.7584 22.0729C26.7584 20.5071 25.489 19.2377 23.9231 19.2377C22.3573 19.2377 21.0879 20.5071 21.0879 22.0729C21.0879 23.6388 22.3573 24.9082 23.9231 24.9082Z"/><path id="Vector_19" fill="url(#paint2_radial_94_18947)" d="M29.8238 10.3947C28.0613 9.51344 26.069 9.00769 23.9617 9.00769C21.8544 9.00769 19.8621 9.50577 18.0996 10.3947H6L6.05364 10.4943L6.11494 10.6016L9.30268 16.1188L10.1303 17.5518L10.2452 17.751H11.6015C11.1188 19.115 10.8506 20.5862 10.8506 22.1188C10.8506 28.0958 14.8582 33.1456 20.3295 34.7165V38.9924H27.6782V34.6782C33.0958 33.069 37.0498 28.0575 37.0498 22.1111C37.0498 20.5786 36.7893 19.1073 36.2989 17.7433H37.7395L38.682 16.1111L41.9847 10.3947H29.8238ZM12.1226 16.4943C12.1149 16.5019 12.1149 16.5096 12.1073 16.5249C12.1073 16.5173 12.1149 16.5096 12.1226 16.4943ZM11.9387 16.9004C11.9387 16.9081 11.931 16.9157 11.931 16.9234C11.931 16.9081 11.931 16.9081 11.9387 16.9004ZM35.8008 16.4943C35.8084 16.5019 35.8084 16.5096 35.8161 16.5249C35.8161 16.5173 35.8084 16.5096 35.8008 16.4943ZM35.9847 16.9004C35.9847 16.9081 35.9923 16.9157 35.9923 16.9234C35.9923 16.9081 35.9923 16.9081 35.9847 16.9004Z"/></g></g><defs><radialGradient id="paint0_radial_94_18947" cx="0" cy="0" r="1" gradientTransform="translate(24.598 18.166) scale(12.8682)" gradientUnits="userSpaceOnUse"><stop stop-color="#231F20" stop-opacity="0.1"/><stop offset="1" stop-color="#231F20" stop-opacity="0"/></radialGradient><radialGradient id="paint1_radial_94_18947" cx="0" cy="0" r="1" gradientTransform="translate(23.922 22.07) scale(2.83525)" gradientUnits="userSpaceOnUse"><stop offset="0.4" stop-color="#231F20" stop-opacity="0"/><stop offset="1" stop-color="#231F20" stop-opacity="0.04"/></radialGradient><radialGradient id="paint2_radial_94_18947" cx="0" cy="0" r="1" gradientTransform="translate(6.175 10.59) scale(29.8946)" gradientUnits="userSpaceOnUse"><stop stop-color="white" stop-opacity="0.1"/><stop offset="1" stop-color="white" stop-opacity="0"/></radialGradient></defs></svg>

<svg xmlns="http://www.w3.org/2000/svg" fill="none" aria-hidden="true" viewBox="0 0 48 48"><path fill="#424242" d="M20.337 16.111v22.881h7.349v-22.88h-7.35Zm7.165 22.69h-6.966V16.303h6.966V38.8Z"/><path fill="#424242" d="m6 10.395 3.303 5.716h11.034v22.881h7.357v-22.88h11.003L42 10.394H6Z"/><path fill="#fff" d="m41.885 10.594.115-.2H6l.123.2h35.762Z" opacity=".2"/><path fill="#AFAFAF" d="M12.314 16.111H9.303l.942 1.632h1.357c.207-.567.436-1.11.712-1.632Zm23.295 0c.268.521.506 1.073.705 1.632h1.44l.943-1.632H35.61Z"/><path fill="#4285F4" d="M23.962 35.215c7.237 0 13.103-5.867 13.103-13.104 0-7.237-5.866-13.103-13.103-13.103S10.858 14.874 10.858 22.11s5.867 13.104 13.104 13.104Z"/><path fill="#263238" d="M11.678 17.544H10.13l.115.2h1.357c.03-.07.053-.139.076-.2Zm24.567 0c.023.069.046.13.07.2h1.44l.115-.2h-1.625ZM23.962 35.023c-7.203 0-13.05-5.816-13.104-13.012v.093c0 7.233 5.87 13.103 13.104 13.103 7.233 0 13.103-5.87 13.103-13.104v-.091c-.053 7.195-5.9 13.011-13.103 13.011Z" opacity=".3"/><path fill="#fff" d="M23.962 9.2c7.203 0 13.05 5.815 13.103 13.01v-.091c0-7.234-5.87-13.104-13.103-13.104-7.234 0-13.104 5.87-13.104 13.104v.092c.054-7.196 5.9-13.012 13.104-13.012Z" opacity=".2"/><path fill="#263238" d="M23.962 30.84a8.582 8.582 0 1 0 0-17.165 8.582 8.582 0 0 0 0 17.164Z" opacity=".3"/><path fill="url(#a)" d="m36.98 23.605-5.677-5.678-.943.544-3.694-3.693-2.613 6.82-1.264 5.425 1.142 3.816 3.824 3.824c4.927-1.494 8.628-5.801 9.226-11.058Z"/><path fill="#E8E8E8" d="M23.93 13.82v8.506l3.771-5.035c-.207-2.153-1.724-3.471-3.77-3.471Zm-7.44 4.215 7.44 4.29-2.474-5.77c-1.97-.896-3.939-.29-4.966 1.48Zm.07 8.551 7.37-4.26-6.229-.736c-1.77 1.257-2.168 3.226-1.142 4.996Z"/><path fill="#D6D6D6" d="M23.931 30.839v-8.506l-3.755 4.882c.2 2.153 1.701 3.624 3.755 3.624Zm2.475-2.743c1.97.904 3.947.153 4.966-1.617l-7.433-4.353 2.467 5.97Z"/><path fill="#D6D6D6" d="m31.303 18.073-7.372 4.26 6.23.736c1.762-1.264 2.169-3.234 1.142-4.996Z"/><path fill="#fff" d="M23.931 22.18v-8.506c2.046 0 3.548 1.326 3.755 3.487l-3.755 5.02Zm0 0-7.371-4.26c1.034-1.77 2.934-2.414 4.896-1.51l2.475 5.77Z"/><path fill="#fff" d="m23.931 22.18-7.372 4.26c-1.027-1.77-.62-3.739 1.142-4.995l6.23.735Z"/><path fill="#E8E8E8" d="M23.931 22.18v8.506c-2.046 0-3.548-1.326-3.755-3.487l3.755-5.019Zm0 0 7.372 4.26c-1.027 1.77-2.928 2.414-4.897 1.51l-2.475-5.77Z"/><path fill="#E8E8E8" d="m23.931 22.18 7.372-4.26c1.027 1.77.62 3.739-1.142 4.996l-6.23-.736Z"/><path fill="#fff" d="M23.923 24.908a2.835 2.835 0 1 0 0-5.67 2.835 2.835 0 0 0 0 5.67Z"/><path fill="url(#b)" d="M23.923 24.908a2.835 2.835 0 1 0 0-5.67 2.835 2.835 0 0 0 0 5.67Z"/><path fill="url(#c)" d="M29.824 10.395a13.082 13.082 0 0 0-5.862-1.387c-2.108 0-4.1.498-5.862 1.387H6l.054.1.06.107 3.189 5.517.827 1.433.115.199h1.357a13.075 13.075 0 0 0-.751 4.368c0 5.977 4.007 11.027 9.478 12.598v4.275h7.35v-4.314c5.417-1.609 9.37-6.62 9.37-12.567 0-1.532-.26-3.004-.75-4.368h1.44l.943-1.632 3.303-5.716H29.824Zm-17.701 6.1c-.008.007-.008.015-.016.03 0-.008.008-.015.016-.03Zm-.184.405c0 .008-.008.016-.008.023 0-.015 0-.015.008-.023Zm23.862-.406c.007.008.007.016.015.03 0-.007-.008-.014-.015-.03Zm.184.406c0 .008.007.016.007.023 0-.015 0-.015-.007-.023Z"/><defs><radialGradient id="a" cx="0" cy="0" r="1" gradientTransform="translate(24.598 18.166) scale(12.8682)" gradientUnits="userSpaceOnUse"><stop stop-color="#231F20" stop-opacity=".1"/><stop offset="1" stop-color="#231F20" stop-opacity="0"/></radialGradient><radialGradient id="b" cx="0" cy="0" r="1" gradientTransform="translate(23.922 22.07) scale(2.83525)" gradientUnits="userSpaceOnUse"><stop offset=".4" stop-color="#231F20" stop-opacity="0"/><stop offset="1" stop-color="#231F20" stop-opacity=".04"/></radialGradient><radialGradient id="c" cx="0" cy="0" r="1" gradientTransform="translate(6.175 10.59) scale(29.8946)" gradientUnits="userSpaceOnUse"><stop stop-color="#fff" stop-opacity=".1"/><stop offset="1" stop-color="#fff" stop-opacity="0"/></radialGradient></defs></svg>
